X:530
T:Ballyvourney polka 2
R:Polka
O:Ireland
S:Henrik Norbeck
Z:Transcription:Henrik Norbeck(?), chords:Mike Long
M:2/4
L:1/8
K:D
"A"EF/G/ FE|"D"FD F/G/A|"A"EF/G/ FE|"D"F2 A2|\
"A"EF/G/ FE|"D"FD F/G/A|"G"B>A B/c/d|[1 "A"e2 e2:|[2 "A"e2 eB/c/|]
|:"D"dA FA|DA FA|"G"B>A GB|"D/A"A2 AB/c/|\
"D"dA FA|DA FA|"G"B>A B/c/d|[1 "A"e2 f>e:|[2 "A"e2 e2|]
